!!!OTL: Fang fengzheng
!!!ARE: Asia, China,ÿQinghai, Dongbu)
!! I, 261
!!!SCT: C1438
!!!YEM: Copyright 1995, estate of Helmut Schaffrath.
**kern
*ICvox
*Ivox
*M2/4
*k[]
*C:
{4dd
8dd
8a
=1
4.dd
8gg
=2
4dd
8cc
8a
=3
4.g
8a}
=4
{4dd
8dd
8gg
=5
4dd
8cc
8a
=6
8cc
8a
8g
8d
=7
2g}
=8
{8g
8a
8dd
8dd
=9
8dd
8gg
4dd
=10
8g
8a
4cc
=11
8a
8cc
8a
8g}
=12
{8g
4f
8g
=13
8a
8cc
8cc
8e
=14
4.d
8g
=15
2d}
=16
{8.dd
16cc
8dd
8gg
=17
8dd
8cc
8a
8g
=18
8g
4f
8g
=19
8a
8cc
8cc
8e
=20
4.d
8g
=21
2d}
==
!!!AGN: Xiaodiao, Xiuhebao diao
!!!ONB: ESAC (Essen Associative Code) Database: HUANG
!!!AMT: simple duple
!!!AIN: vox
!!!EED: Helmut Schaffrath
!!!EEV: 1.0
*-
